!!!!SEGMENT: 059-1a-ST-003.krn
!!!COM: Chopin, Fryderyk
!!!OTL: Mazurka No. 3
!!!OPS: Op. 59
!!!PTL: Trois Mazourkas pour le Piano
!!!PPR: Stern
!!!PPP: Berlin
!!!AGN: Mazurka
!!!NIFC-rismID: 1001017237
!!!NIFC-shelfmark: PL-Wbfc 673n
!!!OMD: Vivace.
**kern	**kern	**dynam
*staff2	*staff1	*staff1/2
*clefF4	*clefG2	*clefG2
*k[f#c#g#]	*k[f#c#g#]	*k[f#c#g#]
*f#:	*f#:	*f#:
*M3/4	*M3/4	*M3/4
*MM180	*MM180	*MM180
4r	(4c#/	.
=1	=1	=1
*	*	*^
*ped	*	*	*
!	!	!	!LO:DY:b
4FFF#/	4.f#/	<	p
4C#\ 4A\ 4c#\	.	.	.
.	8g#/L	.	.
*Xped	*	*	*
4C#\ 4A\ 4c#\	8a/	.	.
.	8b#/J	.	.
.	.	[	.
*	*	*v	*v
=2	=2	=2
*ped	*	*
!	!LO:TX:a:t=P:problem:'3' nad nutami	!
4FF#/	12dd\L	.
.	12ee\	.
.	12dd\J	.
4A\ 4c#\ 4f#\	4cc#\)	.
*Xped	*	*
4A\ 4c#\ 4f#\	(4ff#\	.
=3	=3	=3
*ped	*	*
!	!LO:TX:a:t=P:problem:'3' nad nutami	!
4F#\	12cc#\L	.
.	12dd\	.
.	12cc#\J	.
4B\ 4d\ 4f#\	4b\)	.
*Xped	*	*
4B\ 4d\ 4f#\	(4ff#\	.
=4	=4	=4
*ped	*	*
!	!LO:TX:a:t=P:problem:'3' nad nutami	!
4FF#/	12b\L	.
.	12cc#\	.
.	12b\J	.
4A\ 4c#\ 4f#\	4a/)	.
*Xped	*	*
4C#\ 4A\ 4c#\	(4cc#\	.
=5	=5	=5
*ped	*	*
!	!LO:TX:a:t=P:problem:'3' pod nutami	!
4CC#/	12a/L	.
.	12b/	.
.	12a/J	.
4C#\ 4E#\ 4B\	4g#/)	.
*Xped	*	*
4C#\ 4E#\ 4B\	(4cc#\	.
=6	=6	=6
*ped	*	*
!	!LO:TX:a:t=P:problem:'3' pod nutami	!
4FF#/	12g#/L	.
.	12a/	.
.	12g#/J	.
4C#\ 4F#\ 4A\	4f#/)	.
*Xped	*	*
4D#\ 4A\	(>4cc#\	.
!!LO:LB:g=original
=7	=7	=7
*ped	*	*
!	!LO:TX:a:t=P:problem:'3' pod nutami	!
4GG#/	12f#/L	.
.	12g#/	.
.	12f#/J	.
4E\ 4G#\ 4c#\	4e^/	.
*Xped	*	*
4F#\ 4G#\ 4B#\	>8d#/L	.
.	(8g#/J	.
=8	=8	=8
*	*^	*
*ped	*	*	*
.	.	8qg#	.
4CC#/	4ryy	(>[4c#^/))	.
4C#\ 4E#\ 4B\	8ryy	8c#\L]	.
.	8b/L	8dn\	.
*Xped	*	*	*
4C#\ 4G#\ 4B\	8a/	8c#\	.
.	8g#/J	8e#\J	.
=9	=9	=9	=9
*ped	*	*	*
4FF#/	4f#/)	4ryy	<
4C#\ 4A\ 4c#\	(8g#/L	4ryy	.
.	8f#/	.	.
*Xped	*	*	*
4C#\ 4A\ 4c#\	8a/	4ryy	.
.	8b/J	.	.
.	.	.	[
*	*v	*v	*
=10	=10	=10
*ped	*	*
!	!LO:TX:a:t=P:problem:'3' nad nutami	!
4FF#/	12dd\L	.
.	12ee\	.
.	12dd\J	.
4F#\ 4A#\ 4e\	4cc#\)	.
*Xped	*	*
4F#\ 4A#\ 4e\	(4ff#\	.
=11	=11	=11
*ped	*	*
!	!LO:TX:a:t=P:problem:'3' nad nutami	!
4BB/	12cc#\L	.
.	12dd\	.
.	12cc#\J	.
4F#\ 4e\	4b\)	.
*Xped	*	*
4F#\ 4d\	(4ff#\	.
=12	=12	=12
*ped	*	*
!	!LO:TX:a:t=P:problem:'3' nad nutami	!
4FF#/	12b\L	.
.	12cc#\	.
.	12b\J	.
4F#\ 4c#\	4a/)	.
*Xped	*	*
4D#\ 4A\ 4c#\	(4cc#\	.
=13	=13	=13
*^	*	*
!	!	!LO:TX:a:t=P:problem:'3' pod nutami	!
4r	(>2.E\	12f#/L	.
.	.	12g#/	.
.	.	12f#/J	.
4A/ 4c#/	.	4e/)	.
4A/ 4c#/)	.	(4cc#\	.
*v	*v	*	*
!!LO:LB:g=original
=14	=14	=14
*ped	*	*
!	!LO:TX:a:t=P:problem:'3' pod nutami	!
4EE'/	12e/L	.
.	12f#/	.
.	12e/J	.
4F#\ 4A\	4d#/)	.
*Xped	*	*
4F#\ 4A\	(>4cc#\	.
=15	=15	=15
*ped	*	*
4EE'/	8dn/L	.
.	8b/	.
4r	8cc#/	.
.	8dd/	.
4E\ 4G#\ 4d\	8cc#/	.
*Xped	*	*
.	8b/J	.
=16	=16	=16
*ped	*	*
4AA/	8cc#\L	.
.	8b\J	.
*Xped	*	*
4E\ 4A\ 4c#\	(4a/)	<
4EE'/	8cc#\L	.
.	8dd\J	.
.	.	[
=17	=17	=17
*ped	*	*
4AAA'/	2ee\	.
4Gn\ 4A\ 4e\	.	.
*Xped	*	*
4Gn\ 4A\ 4e\	8ff#\L	>
.	8ee\J	.
=18	=18	=18
*ped	*	*
4F#\ 4A\ 4d#\	4dd#\)	]
4F#\ 4A\ 4d#\	(8b\L	<
*Xped	*	*
.	8cc#\J	.
4Fn\ 4A\ 4dn\	4ddn\)	.
.	.	[
=19	=19	=19
*ped	*	*
4AA/	(8d/L	.
.	8b/	.
4E\ 4G#\ 4d\	8cc#/	.
.	8dd/	.
*Xped	*	*
4E\ 4d\	8cc#/	.
.	8b/J	.
=20	=20	=20
*ped	*	*
4AA/	8cc#\L	.
.	8b\J	.
4E\ 4A\ 4c#\	4a/)	<
*Xped	*	*
4EE'/	(8cc#\L	.
.	8dd\J	[
!!LO:LB:g=original
=21	=21	=21
*ped	*	*
4AAA'/	2ee\	>
4Gn\ 4A\ 4e\	.	.
*Xped	*	*
4G\ 4A#\ 4e\	16ff#\LL	.
.	16ee\	.
.	16ff#\	.
.	16ee\JJ	.
=22	=22	=22
*	*^	*
*ped	*	*	*
4F#\ 4B\ 4d#\	4ryy	4dd#\)	]
4F#\ 4B\	(8b/L	4a\	>
.	8cc#/J	.	.
*Xped	*	*	*
4Fn\ 4B\ 4dn\	4ddn/)	4a\	]
=23	=23	=23	=23
*ped	*	*	*
4AA/	(>8d/L	4ryy	.
.	8b/	.	.
4E\ 4B\ 4d\	8cc#/	4g#\	.
.	8dd/	.	.
*Xped	*	*	*
4E\ 4G#\ 4d\	8cc#/	4e\	.
.	8b/J	.	.
*	*v	*v	*
=24	=24	=24
*ped	*	*
4AA/	8cc#/L	.
.	8b/J	.
4E\ 4c#\	4a/)	>
*Xped	*	*
4C#\ 4E#\ 4B\	(>8g#/L	.
.	8a/J	.
.	.	]
=25	=25	=25
*ped	*	*
4FF#/	4.f#/	.
4C#\ 4F#\ 4A\ 4c#\	.	.
.	8g#/L	<
*Xped	*	*
4C#\ 4F#\ 4A\ 4c#\	8a/	.
.	8b#/J	.
=26	=26	=26
*ped	*	*
!	!LO:TX:a:t=P:problem:'3' nad nutami	!
4FF#/	12dd\L	.
.	12ee\	.
.	12dd\J	.
4A\ 4c#\ 4f#\	4cc#\)	[
*Xped	*	*
4A\ 4c#\ 4f#\	(4ff#\	.
=27	=27	=27
*ped	*	*
!	!LO:TX:a:t=P:problem:'3' nad nutami	!
4BB/	12cc#\L	.
.	12dd\	.
.	12cc#\J	.
(4F#\ 4e\	4ccn\)	.
*Xped	*	*
4F#\ &4d\&))	4b\ (4ff#\	.
!!LO:LB:g=original
=28	=28	=28
!	!LO:TX:a:t=P:problem:'3' nad nutami	!
*	*^	*
*ped	*	*	*
4FF#/	4ryy	12b\L	.
.	.	12cc#X\	.
.	.	12b\J	.
4F#\ 4c#\	4a#/)	4ryy	.
*Xped	*	*	*
4F#\ 4c#\	(<4cc#/ 4a/	4	.
*	*v	*v	*
=29	=29	=29
*ped	*	*
!	!LO:TX:a:t=P:problem:'3' pod nutami	!
4C#/	12a/L	.
.	12b/	.
.	12a/J	.
(4E#\ 4c#\	4g#/)	.
*Xped	*	*
4E#\ 4B\)	(<4c#/ 4cc#/	.
=30	=30	=30
*ped	*	*
!	!LO:TX:a:t=P:problem:'3' pod nutami	!
4FF#/	12g#/L	.
.	12a/	.
.	12g#/J	.
4A\	4gn/)	.
*Xped	*	*
4D#\ 4A\ 4c#\	4f#/ (>4cc#/	.
=31	=31	=31
!	!LO:TX:a:t=P:problem:'3' pod nutami	!
*	*^	*
*ped	*	*	*
4GG#/	12f#/L	4ryy	.
.	12g#X/	.	.
.	12f#/J	.	.
4G#\	8ryy	8fn\L	.
.	4g#^/	8e\	.
*Xped	*	*	*
4F#\ 4G#\ 4B#\	.	8d#\	.
.	8/	[>8g#^\J	.
=32	=32	=32	=32
*ped	*	*	*
4CC#'/	]4.g#/)	8c#\L	.
.	.	8dnm\	.
4C#\ 4E#\ 4B\	.	8c#\	.
.	(8b/L	8d\	.
*Xped	*	*	*
4C#\ 4G#\ 4B\	8a/	8c#\	.
.	8g#/J	8e#\J	.
=33	=33	=33	=33
*ped	*	*	*
4FF#'/	4f#/	4	<
4C#\ 4A\ 4c#\	8g#/L	4ryy	.
*Xped	*	*	*
.	8f#/	.	.
4C#\ 4A\ 4c#\	8a/	4ryy	.
.	8b#/J	.	.
.	.	.	[
*	*v	*v	*
=34	=34	=34
*ped	*	*
!	!LO:TX:a:t=P:problem:'3' nad nutami	!
4FF#/	12dd\L	.
.	12ee\	.
.	12dd\J	.
4F#\ 4A#\ 4e\	4cc#\)	.
*Xped	*	*
4F#\ 4A#\ 4e\	4f#^<\ (4ff#^<\	.
!!LO:PB:g=original
=35	=35	=35
*ped	*	*
!	!LO:TX:a:t=P:problem:'3' nad nutami	!
4BB'/	12cc#\L	.
.	12dd\	.
.	12cc#\J	.
4F#\ 4e\	4ccn\)	.
*Xped	*	*
4F#\ 4d\	4b^<\ (4ff#^<\	.
=36	=36	=36
!	!LO:TX:a:t=P:problem:'3' nad nutami	!
*ped	*	*
4FF#'/	12b\L	.
.	12cc#X\	.
.	12b\J	.
4F#\ 4c#\	4a#/)	.
*Xped	*	*
4F#\ 4c#\	(>4an^</ 4cc#^</	.
=37	=37	=37
*^	*	*
4r	(>2.D\	>4.f#/	>
4F#/ 4c#/	.	.	.
.	.	8g#/L	.
4F#/ )&4B/&)	.	8a/	.
.	.	8b/J	.
=38	=38	=38	=38
!	!	!LO:TX:a:t=P:problem:'3' pod nutami	!
4r	(>2.C#\	12a/L	.
.	.	12b/	.
.	.	12a/J	.
4F#/ 4B/	.	4g#/)	]
4E#/ 4B/)	.	(4cc#\	.
=39	=39	=39	=39
4r	(>2.D\	>4.f#/	.
4F#/ 4c#/	.	.	.
.	.	8g#/L	.
4F#/ )&4B/&)	.	8a/	.
.	.	8qcc#	.
.	.	8b/J	.
=40	=40	=40	=40
!	!	!LO:TX:a:t=P:problem:'3' pod nutami	!
4r	(>2.C#\	12a\L	.
.	.	12b\	.
.	.	12a/J	.
4F#/ 4B/	.	4g#/)	<
!	!	!LO:TX:t=ritenuto. _ 	!
4E#/ 4B/)	.	(4cc#\	.
=41	=41	=41	=41
4r	2.D\	4.f#/	.
4F#/ 4c#/	.	.	.
.	.	8g#/L	.
4F#/ &4B/	.	8a/	.
.	.	8b/J	[
*v	*v	*	*
!!LO:LB:g=original
=42	=42	=42
*ped	*	*
4BBB/	8cc#\L	.
.	8ee\J	.
4G#\ 4B\ 4d\ 4f#\	4.dd\	.
*Xped	*	*
4r	.	.
.	8f#/)	.
=43	=43	=43
*	*^	*
4r	(>8f#/L	4	.
.	8e#/J	.	.
*ped	*	*	*
4CC#'/	4.a/	4	.
[<4C#/	.	4B\ 4e#\	.
.	8g#/	.	.
=44	=44	=44	=44
4C#:\] 4B\ 4e#\	8a#/L	4ryy	<
.	8b/	.	.
4r	8b#/	8ryy	.
.	8cc#/	4cc#\	.
*Xped	*	*	*
4r	8ee#/	.	.
.	8dd 8bnJ	8ryy	[
*	*v	*v	*
=||	=||	=||
=45	=45	=45
*k[f#c#g#d#a#e#]	*k[f#c#g#d#a#e#]	*k[f#c#g#d#a#e#]
!	!LO:TX:a:B:t=in tempo.	!
!	!LO:TX:i:t=dol.	!
(4FF#/	[4a#/ [4cc#/	.
4C#/	8a#/] 8cc#/L]	>
.	8g##/ 8b#/)	.
4D#/	8c#/	.
.	16r	.
.	(>[16g#/Jk	.
=46	=46	=46
4E#\	8g#/] 8bn/L	.
.	8f#/ 8a#/	.
4F#\	8c#/)	.
.	16r	.
.	(>16f#/ 16a#/Jk	]
4c#\)	4en/ 4a#/^	.
=47	=47	=47
4r	[4d#/ [4f#/)	<
*ped	*	*
4BB'/	(>8d#/] 8f#/L]	.
.	>8b/ 8dd#/	.
4F#\ 4B\ 4d#\	8f#/	.
*Xped	*	*
.	16r	.
.	[16cc#/Jk	.
!!LO:LB:g=original
=48	=48	=48
!	!LO:TX:a:t=P:problem:'3' nad nutami	!
*ped	*	*
4BBB/	8cc#\] 8ee#\L	.
.	(8dd#\ 8ff#\	.
4F#\ 4d#\	8f#\)	[
.	24dd#\ 24ff#\L	.
.	24gg#\	.
.	24ff#J	.
*Xped	*	*
4F#\ 4f#\	8cc#\ 8ee#\	.
.	8b\ 8dd#\J	.
=49	=49	=49
(>4FF#/	[4a#/ [4cc#X/	>
4C#/	8a#/] 8cc#/L]	.
.	8g##/ 8b#/)	.
4D#/	8c#/	.
.	16r	.
.	(>[16g#/Jk	.
=50	=50	=50
4E#\	8g#/] 8bn/L	.
.	8f#/ 8a#/	.
4F#\	8c#/)	/
.	16r	.
.	(>16f#/ 16a#/Jk	]
4c#\)	4d#^/ 4an^/	.
=51	=51	=51
4r	[<4B#/ [<4f#/ [>4g#/	.
*ped	*	*
4GG#/	8B#/] 8f#/] 8g#/L]	.
.	(>8b#/)	<
*Xped	*	*
(4G#\ 4A#\	8f#/ &8g#/&)	.
.	16r	.
.	16cc#/Jk	.
=52	=52	=52
*	*^	*
4G#\ 4B\	8cc##/L	4ryy	.
.	8dd#/	.	.
4G#\ 4B#\	8g#/	4f#\	.
.	8ff#/	.	[
4C#\ 4G#\ 4c#\)	8e#/ 8ee#/^)	4ryy	.
.	16r	.	.
.	(>16a#/Jk	.	.
=53	=53	=53	=53
*	*	*	*^
!	!	!	!	!LO:HP:a
4GG#'/	[>4a#/	4r	.	>
(4G#\ 4d#\	12a#/L] 12f#\	4ryy	<	.
.	12b#/	.	.	.
.	12a#/J	.	.	.
4G#\ 4A#\	(>8f#/ 8g#/L)	4ryy	.	]
.	16r	.	.	.
.	16cc#/Jk	.	.	.
*	*	*	*v	*v
!!LO:LB:g=original
=54	=54	=54	=54
4G#\ 4Bn\	8cc##/L	4ryy	.
.	8dd#/	.	.
4G#\ 4B#\	8g#/ 8f#/	4ryy	[
.	8ff#/	.	.
4C#\ 4G#\ &4c#\))	8e#^</ 8ee#^</)	4ryy	.
.	16r	.	.
.	(>16b/ 16dd#/Jk	.	.
*	*v	*v	*
=55	=55	=55
(>4FF#/	[4b/ [4dd#/	>
4C#/	8b/] 8dd#/L]	.
.	8a#/ 8cc#/	.
4D#/	8c#/)	.
.	16r	.
.	(>[16g##/Jk	.
=56	=56	=56
4E#\	8g##X/] 8b#/L	.
.	8g#/ 8bn/	.
4F#\	8c#/)	.
.	16r	.
.	(>16f#/ 16a#/Jk	]
4c#\)	4en^</ 4a#^</	.
=57	=57	=57
4r	[4d#/ [4f#/	.
*ped	*	*
4BB'/	>8f#/L]	.
.	(8b/ 8dd#/	<
4F#\ 4d#\	8f#/))	.
*Xped	*	*
.	16r	.
.	(16cc#/Jk	.
=58	=58	=58
!	!LO:TX:a:t=P:problem:'3' nad nutami	!
*ped	*	*
4BBB'/	8cc#\ 8ee#\L	.
.	(8dd#\ 8ff#\	.
4F#\ 4d#\	8f#\)	[
.	24dd#\ 24ff#\L	.
.	24gg#\	.
.	24ff#J	.
*Xped	*	*
4F#\ 4f#\	8cc#\ 8ee#\	.
.	8b\ 8dd#\J	.
=59	=59	=59
(>4FF#/	[4a#/ [4cc#X/	>
4C#/	8a#/] 8cc#/L]	.
.	8g##/ 8b#/	.
4D#/	8c#/)	.
.	16r	.
.	(>[16g#/Jk	.
!!LO:LB:g=original
=60	=60	=60
4E#\	8g#/] 8bn/L	.
.	8f#/ 8a#/	.
4F#\	8c#/)	]
.	16r	.
.	(>16f#/ 16a#/Jk	.
4c#\)	4d#^/ 4an/	.
=61	=61	=61
4r	[4B#/ [<4f#/ [4g#/	.
*ped	*	*
4GG#'/	8B#/] 8f#/] &8g#/L]&)	.
.	8b#/	<
.	.	.
(>4G#\ 4A#\	>8f#/ 8g#/)	.
.	16r	.
*Xped	*	*
.	(>16cc#/Jk	.
=62	=62	=62
*	*^	*
4G#\ 4Bn\	8cc##/L	4ryy	.
.	8dd#/	.	.
4G#\ 4B#\	8g#/ 8f#/	4ryy	.
.	8ff#/	.	[
4C#\ 4G#\ 4c#\)	8e#/ 8ee#/)	4ryy	>
.	16r	.	.
!	!	!	!LO:HP:a
.	(>16a#/Jk	.	]>
=63	=63	=63	=63
*ped	*	*	*
4GG#'/	[4a#/	4r	]
(4G#\ 4d#\	12a#/L]	4f#\	.
.	12b#/	.	<
.	12a#/J	.	.
4G#\ 4A#\	8f#/ 8g#/L)	4ryy	.
.	16r	.	.
.	(>16cc#/Jk	.	.
=64	=64	=64	=64
4G#\ 4Bn\	8cc##/L	4ryy	.
.	8dd#/	.	.
4G#\ 4B#\	8g#/ 8f#/	4ryy	[
.	8ff#/J	.	.
(8C#\ 8G#\ 8c#\L)	8e#/ 8ee#^/)	4ryy	.
8BBn\J)	8r	.	.
=65	=65	=65	=65
*ped	*	*	*
(>4AA#/)	(4.gg#/	4r	>
4A#\	.	4g#\ 4cc##\	.
*Xped	*	*	*
.	8ff##/L	.	.
4D#\ 4A#\ 4d#\)	8dd#/	4f##\ 4cc#\	.
.	8ee#/J	.	.
!!LO:PB:g=original
=66	=66	=66	=66
*ped	*	*	*
4GG#/	12ff#/L	4r	.
.	12gg#/	.	.
.	12ff#/J	.	.
4G#\	8ee#/L	4f#\ 4b#\	.
*Xped	*	*	*
.	8dd#/	.	.
4C#\ 4G#\ 4c#\	8ee#/	4e#\ 4bn\	.
.	8cc#/J	.	.
=67	=67	=67	=67
*ped	*	*	*
4FF#/	4.een/	4r	.
4F#\	.	4en\ 4a#X\	.
*Xped	*	*	*
.	8dd#/L	.	.
4BB\ 4F#\ 4B\	8b/	4d#\ 4an\	.
.	8cc#/J	.	.
=68	=68	=68	=68
*ped	*	*	*
4EEn/	12ddn/L	4r	.
.	12een/	.	]
.	12dd/J	.	.
4E#\	8cc#/L	4dn\ 4g#\	.
.	8b#/J	.	.
*Xped	*	*	*
4AAn\ 4E#\ 4An\	)&4cc#/&)	4c#^\ 4an^\	.
=69	=69	=69	=69
*ped	*	*	*
4DD#/	(4.cc#/	4r	.
4D#/	.	4c#\ 4f##\	>
.	8b#/L	.	.
*Xped	*	*	*
4GG#/ 4D#/ 4G#/	8g#/	4B#\ 4f#\	.
.	8a#/J	.	.
=70	=70	=70	=70
*ped	*	*	*
4CC#/	12bn/L	4r	.
.	12cc#/	.	.
.	12b/J	.	.
4C#/	8a#/L	4Bn\ 4e#\	]
*Xped	*	*	*
.	8g#/	.	.
4FF#/ 4C#/ 4F#/	8a#/	4A#^ 8a#\	.
.	8f#/J	.	.
=71	=71	=71	=71
4BB\ 4F#\	4d#`/)	4B\	sf
4BB\ 4F#\	(8f#/L	4d#\	p
.	8g#/	.	.
4FF#/ 4F#/	8a#/	4d#\	.
.	8b/J	.	.
!!LO:LB:g=original
=72	=72	=72	=72
4BB\ 4F#\	12d#/L	4d#\	.
.	12cc#/	.	.
.	12b/J	.	.
4C#\ 4F#\	8a#/L	4c#\	.
.	8g#/	.	.
4FF#/ 4F#/	8a#/	4c#\	.
.	8f#/J	.	.
=73	=73	=73	=73
4BB\ 4F#\	8d#/L	4d#\	.
.	8e#/	.	.
4BB\ 4F#\	8f#/	4d#\	.
.	8g#/	.	.
4FF#/ 4F#/	8a#/	4d#\	.
.	8b/J	.	.
=74	=74	=74	=74
4BB/ 4F#/	12d#/L	4d#\	.
.	12cc#/	.	.
.	12b/J	.	.
4BB/ 4E#/	8a#/L	4d#\	.
.	8g#/J	.	.
4AA#/ 4E#/	4a#/)	4c##^\	.
=75	=75	=75	=75
*ped	*	*	*
4AAA#'/	(4.gg#/	4r	.
4A#\	.	4g#\ 4cc##\	>
.	8ff##/L	.	.
*Xped	*	*	*
4D#\ 4A#\ 4d#\	8dd#/	4f##\ 4cc#\	.
.	8ee#/J	.	.
=76	=76	=76	=76
4AA#\ 4A#\	12ff#/L	4f#X\ 4cc#\	.
.	12gg#/	.	.
.	12ff#/J	.	.
4GG#\ 4G#\	8ee#X/L	4f#\ 4b#\	.
.	8dd#/	.	.
4C#\ 4G#\ 4c#\	8ee#/	4e#\ 4bn\	.
.	8cc#/J	.	.
=77	=77	=77	=77
4GG#/ 4G#/	4.een/	4en\ 4b\	.
4FF#/ 4F#/	.	4e\ 4a#\	.
.	8dd#/L	.	.
4BB\ 4F#\ 4B\	8b/	4d#\ 4an\	.
.	8cc#/J	.	]
!!LO:LB:g=original
=78	=78	=78	=78
4FF#/ 4F#/	12ddn/L	4dn\ 4an\	.
.	12een/	.	.
.	12dd/J	.	.
4EEn/ 4En/	8cc#/L	4d\ 4g#\	.
.	8b#/J	.	.
4AAn/ 4E/ 4An/	4cc#/	4c#^\ 4a^\	.
=79	=79	=79	=79
4EE#X/ 4E#X/	4.cc#/	4c#\ 4g#\	>
4DD#/ 4D#/	.	4c#\ 4f##\	.
.	8b#/L	.	.
4GG#/ 4D#/ 4G#/	8g#X/	4B#\ 4f#y\	.
.	8a#X/J	.	.
=80	=80	=80	=80
4DD#/ 4D#/	12b/L	4f#\	.
.	12cc#/	.	.
.	12b/J	.	.
4CC#/ 4C#/	8a#/L	4B\ 4e#X\	]
.	8g#/	.	.
4FF#/ 4C#/ 4F#/	8a#/	4A#^\	.
.	8f#/J	.	.
=81	=81	=81	=81
4BB\ 4F#\	4d#`/)	4B\	sf
4BB\ 4F#\	(8f#/L	4d#\	p
.	8g#/	.	.
4FF#/ 4F#/	8a#/	4d#\	.
.	8b/J	.	.
=82	=82	=82	=82
4BB\ 4F#\	12d#/L	4d#\	.
.	12cc#/	.	.
.	12b/J	.	.
4C#\ 4F#\	8a#/L	4c#\	.
.	8g#/	.	.
4FF#/ 4F#/	8a#/	4c#\	.
.	8f#/J	.	.
=83	=83	=83	=83
4BB\ 4F#\	8d#/L	4d#\	.
.	8e#/	.	.
4BB\ 4F#\	8f#/	4d#\	.
.	8g#/	.	.
4FF#/ 4F#/	8a#/	4d#\	.
.	8b/J	.	.
!!LO:LB:g=original
=84	=84	=84	=84
4FF#/ 4F#/	12d#/L	4d#\	.
.	12cc#/	.	.
.	12b/J	.	.
4BB\ 4F#\	8a#/L	4d#\	.
.	8g#/	.	.
4FF#/ 4F#/	8a#/	4c#\	.
.	8f#/J	.	.
=85	=85	=85	=85
4BB\ 4F#\	8a#/L	4d#\	<
.	8g#/	.	.
4FF#/ 4F#/	8a#/	4c#\	.
.	8f#/	.	.
4BB\ 4F#\	8a#/	4d#\	.
.	8g#/J	.	.
=86	=86	=86	=86
4FF#/ 4F#/	8a#/L	4c#\	.
.	8f#/	.	.
4BB\ 4F#\	8a#/	4d#\	.
.	8g#/	.	.
4FF#/ 4F#/	8a#/	4c#\	.
.	8f#/J	.	[
=87	=87	=87	=87
4BB\ 4F#\	8an/L	4d#\	>
.	8g#/	.	.
4FF#/ 4F#/	8a/	4c#\	.
.	8f#/	.	.
4BB\ 4F#\	8a/	4d#\	.
.	8g#/J	.	.
=88	=88	=88	=88
4FF#/ 4F#/	8an/L	4c#\	.
.	8f#/	.	.
4BB\ 4F#\	8a/	4d#\	.
.	8g#/	.	.
4FF#/ 4F#/	8a/	4c#\	.
.	8f#/J	.	]
*	*v	*v	*
=89	=89	=89
*ped	*	*
(>4.BBB/	[2.d#^/ [2.an^/	.
8FF#/L	.	.
8BB/	.	.
*Xped	*	*
8G#/J	.	.
=90	=90	=90
!LO:TX:a:t=P:problem:'3' nad nutami	!LO:TX:i:t=dim. _	!
12F#\L	2.d#/] 2.anX/]	.
12G#\	.	.
12F#\J	.	.
4BB/')	.	.
4B'\)	.	.
=91	=91	=91
*ped	*	*
(>4.EEn/	[2.dn/ 2.an/	.
8BB\L	.	.
8E#\	.	.
*Xped	*	*
8c#\J	.	.
!!LO:LB:g=original
=92	=92	=92
!LO:TX:a:t=P:problem:'3' nad nutami	!	!
12B\L	2.dnX/] 2.g#/	.
12c#\	.	.
12B\J	.	.
&4En\&')	.	.
)4eny'\	.	.
=93	=93	=93
*ped	*	*
(4.AAAn/	2.dn/ [2.gn/	.
8EEn/L	.	.
8AA#/	.	.
*Xped	*	*
8F#/J	.	.
=94	=94	=94
!LO:TX:a:t=P:problem:'3' nad nutami	!	!
12En\L	2.c#/ 2.gnX/]	.
12F#\	.	.
12E\J	.	.
&4AAn'/)	.	.
4Any'\	.	.
=95	=95	=95
*ped	*	*
(>4.DDn'/	[2.cn/ 2.gn/	>
8AAn\L	.	.
8Dn\	.	.
*Xped	*	*
8B\J	.	.
=96	=96	=96
!LO:TX:a:t=P:problem:'3' nad nutami	!	!
*^	*	*
4ryy	12AnL	[<2.f# 2.cnX]	.
.	12B	.	.
!	!LO:TX:t=P:Nie wyswietla sie ligatura:problem	!	!
.	[>12AJ	.	.
(2A]	4Dn'	.	.
.	4d#'\	.	.
*v	*v	*	*
=97	=97	=97
*k[f#c#g#]	*k[f#c#g#]	*k[f#c#g#]
&4C#\& 4A))	4.c#X/ 4.f#/])	<
4r	.	.
.	(>8g#/L	.
4r	8a/	.
.	8b#/J	.
=98	=98	=98
!	!LO:TX:i:t=cres _	!
!	!LO:TX:a:t=P:problem:'3' nad nutami	!
2.r	12dd\L	.
.	12ee\	.
.	12dd\J	.
.	4cc#\	.
.	4ff#\	[
!!LO:PB:g=original
=99	=99	=99
!	!LO:TX:a:t=P:problem:'3' nad nutami	!
!	!	!LO:HP:b
(>4.C#/	12cc#\L	<
.	12dd\	.
.	12cc#\J	.
.	4b#\	.
8G#\L	.	.
8A\	4bn\	.
8B#\J	.	.
=100	=100	=100
!	!LO:TX:a:t=P:problem:'3' nad nutami	!
12d\L	12b\L	.
12e\	12cc#\	.
12d\J	12b\J	.
4c#\	4a#/	.
4f#\	4an/ 4cc#/	[
=101	=101	=101
!	!LO:TX:a:t=P:problem:'3' nad nutami i pod triolą prawej ręki	!
12c#\L	12a/L	.
12d\	12b/	.
12c#\J	12a/J)	.
4B#\	4g#/	.
4Bn\	4c#^/ (>4cc#^/	.
=102	=102	=102
12B\L	12g#/L	.
12c#\	12a/	.
12B\J	12g#/J	.
4A#\	4g/)	.
4An\ 4c#\	4f#/ (>4cc#^>/	.
=103	=103	=103
*^	*^	*
2G#)	4r	4.ryy	12f#L/	.
.	.	.	12g#/	.
.	.	.	12f#J	.
.	4GG#/	.	8e#L	.
.	.	4g#^)	8enJ	.
*ped	*	*	*	*
4ryy	4F# 4B#	.	4d#	.
*Xped	*	*	*	*
.	.	[8g#	.	.
*v	*v	*	*	*
!!LO:LB:g=original
=104	=104	=104	=104
*ped	*	*	*
4CC#/	(4.g#/]	8c#\L	.
.	.	8dnm\	.
4C#\ 4E#\ 4B\	.	8c#\	.
.	8b/L	8d\	.
4C#\ 4G#\ 4B\	8a/	8c#\	.
*Xped	*	*	*
.	8g#/J	8e#\J	.
*	*v	*v	*
=105	=105	=105
*ped	*	*
4FFF#	4f#/	f
4C#\ 4A\ 4c#\	8g#/L	.
.	8f#/	.
*Xped	*	*
4C#\ 4A\ 4c#\	8a/	.
.	8b/J	.
=106	=106	=106
!	!LO:TX:a:t=P:problem:'3' nad nutami	!
*ped	*	*
4FF#/	12dd\L	.
.	12ee\	.
.	12dd\J	.
4F#\ 4A#\ 4e\	4cc#)	.
*Xped	*	*
4F#\ 4A#\ 4e\	(4ff#^<\ 4f#^<	.
=107	=107	=107
!	!LO:TX:a:t=P:problem:'3' nad nutami	!
*ped	*	*
4BB/	12cc#\L	.
.	12dd\	.
.	12cc#\J	.
4F#\ 4e\	4ccn\)	.
*Xped	*	*
4F#\ 4d\	4b^<\ (4ff#^<\	.
=108	=108	=108
!	!LO:TX:a:t=P:problem:'3' nad nutami	!
*ped	*	*
4FF#/	12b\L	.
.	12cc#\	.
.	12b\J	.
4F#\ 4d\	4a#/)	.
*Xped	*	*
4F#\ 4c#\	4an^/ 4cc#^/	.
=109	=109	=109
*^	*	*
!	!	!LO:TX:i:t=dim. _	!
4r	(>2.D\	(>4.f#/	.
4F#/ 4c#/	.	.	.
.	.	8g#/L	.
4F#/ )&4B/&)	.	8a/	.
.	.	8b/J	.
!!LO:LB:g=original
=110	=110	=110	=110
!	!	!LO:TX:a:t=P:problem:'3' pod nutami	!
4r	(>2.C#\	12a/L	.
.	.	12b/	.
.	.	12a/J	.
4F#/ 4B/	.	4g#/)	.
4E#/ 4B/)	.	(4cc#\	.
=111	=111	=111	=111
4r	(>2.D\	4.f#/	p
4F#/ 4c#/	.	.	.
.	.	8g#/L	.
4F#/ )&4B/&)	.	8a/	.
.	.	8qcc#	.
.	.	8b/J	.
=112	=112	=112	=112
!	!	!LO:TX:a:t=P:problem:'3' pod nutami	!
4r	(>2.C#\	12a/L	.
.	.	12b/	.
.	.	12a/J	.
4F#/ 4B	.	4g#/)	.
!	!	!LO:TX:i:a:t=ri _ te _ nu _ to _	!
4E#/ 4B/)	.	(>4cc#\	.
=113	=113	=113	=113
4r	(>2.D\	4.f#/	<
4F#/ 4c#/	.	.	.
.	.	8g#/L	.
4F#/ )&4B/&)	.	8a/	.
.	.	8b/J	.
*v	*v	*	*
=114	=114	=114
*ped	*	*
4GG#'/	8cc#\L	.
.	8ee\J	.
4G#\ 4B\ 4d\ 4f#\	4.dd\	[
*Xped	*	*
4r	.	.
!	!LO:TX:a:B:t=a tempo.	!
.	8f#/)	.
=115	=115	=115
*	*^	*
4r	(8f#/L	4r	<
.	8e#/J	.	.
4C#/	4.a/	4r	.
&4C##/&)	.	4B\ 4e#\	.
.	8g#/)	.	.
!!LO:LB:g=original
=116	=116	=116	=116
4r	(8g#/L	4r	.
.	8f#/J	.	.
4D\	4.b/	4cn\	.
4D#\	.	4c\ 4f#\	.
.	8a/)	.	.
=117	=117	=117	=117
4E\	(8f##/L	4B#\	.
.	8g#/	.	.
4EE/	8a/	4c#\	.
.	8g#/	.	.
4EE#/	8cc#/	4d\ 4g#\	.
.	8bn/J	.	.
=118	=118	=118	=118
[4FF#/	8d/ 8f#/ 8b/L	4ryy	.
.	8c#/ 8a#/J	.	.
4FF#/] 4F#/	4.dd/	4e\	.
4FF##/ 4F##/	.	4e\ 4an\	.
.	8cc#/	.	[
=119	=119	=119	=119
*ped	*	*	*
)4GG#\) 4G#\	8.e/ 8.g#/ 8.cc#/L	4ryy	f>
.	16d/ 16g#/ 16b#/Jk	.	.
4G#\ 4d#\ 4f#\	4.gg#/	4g#\ 4b#\	.
4G#\ 4d#\ 4f#\	.	4g#\ 4b#\	.
*Xped	*	*	*
.	8ff#/)	.	.
=120	=120	=120	=120
*ped	*	*	*
4CC#/ 4C#/	(4.ff#/	4r	.
4G#\ 4c#\ 4g#\	.	4e#\ 4bn\	.
.	8ee#/L	.	.
4G#\ 4c#\ 4g#\	8b/	4e#\	.
*Xped	*	*	*
.	8cc#/J	.	]
=121	=121	=121	=121
*^	*	*	*
4ryy	4r	8een/L	4r	.
.	.	8dd#/J	.	.
!	!	!	!LO:TX:i:t=dim _	!
(>4B/	4C#\	12ddn/L	4e#\	.
.	.	12ee/	.	.
.	.	12dd/J	.	.
8A/L	4C#\	8cc#/L	4e#\	.
8G#/J	.	8b/J	.	.
*v	*v	*	*	*
*	*v	*v	*
!!LO:LB:g=original
=122	=122	=122
.	8qc#	.
!	!	!LO:HP:b
8FF#/L	8a/ 8cc#/L	<
8C#/J	8g#/ 8b/J	.
4c#\	4f#/ 4a/)	[
8.A\L	4r	.
16F#\Jk	.	.
=123	=123	=123
*	*^	*
!	!LO:TX:i:t=cresc. _	!	!
8F#\L	4ryy	4r	.
8E#\J	.	.	.
4.A\	8ryy	8r	.
.	(>8c#/L	4c#\	.
.	8f#/	.	.
8G#\)	8e#/ 8g#/J	8ryy	.
=124	=124	=124	=124
(8G#\L	8e#/ 8b/L	4c#\	.
8F#\J	8f#/ 8a/J)	.	.
4.B\	8r	8ryy	.
.	(>8d/L	4d\	.
.	8g#/	.	.
8A\	8f#/ 8a/J	8ryy	.
=125	=125	=125	=125
8F##\L	8cc#/L	4d\ 4e#\	.
8G#\	8b/J)	.	.
8A\	8r	8ryy	.
8G#\	(8e#/L	4e#\	.
8c#\	8a/	.	.
8B\J	8g#/ 8b/J	8ryy	.
=126	=126	=126	=126
8BL	8ddL	2.gn 2.en	.
8A#XJ	8cc#)J	.	.
4.d	8r	.	.
.	16r	.	.
.	(16bKL	.	.
.	8b	.	.
8c#)	8a#XJ	.	.
=127	=127	=127	=127
*	*	*	*^
!	!	!	!	!LO:HP:b
(>8c#L	8anL	4f# 4d#X	.	<
8B#XJ	8g#XXJ)	.	.	.
4.g#	4r	2ryy	f	.
.	4r	.	.	.
8f#	.	.	.	[
*	*	*	*v	*v
*	*v	*v	*
!!LO:PB:g=original
=128	=128	=128
8.f#L	8r	.
.	16r	.
16e#XJk	(>16g#	.
4.e#	4.gg#\ 4.g#\	.
8d#X	8ff#\ 8b#X\ 8g#\	.
=129	=129	=129
8.d#XL	8.ff#\L 8.b#X\ 8.g#\	.
16c#Jk	16ee#XJk 16cc# 16g#	.
4.c#	4.ee#^ 4.g#^ 4.e^	.
8Bn	8dd 8g# 8e	.
=130	=130	=130
8AL	8ddL 8a 8fn	.
.	8qee/	.
8G#J	8ddJ 8b 8en	.
4A	4cc# 4a 4e	.
[<4D#X	4cc#^ [<4a^ [4f#X^	.
=131	=131	=131
8D#XL]	8bL 8a] 8f#]	.
.	8qcc#/	.
8E#XJ	8bJ 8g# 8c#	.
4F#	4a 4c#	.
4B 4BB	4gn [4d	>
=132	=132	=132
*^	*^	*
2Gn	8BBL	2gn	8dL]	]
.	.	.	8qf#/	.
.	8CnJ	.	8eJ	.
!	!	!	!LO:TX:i:t=dim. _	!
.	4E	.	4cn	.
4ryy	[4D	4ryy	4B\	.
!!LO:LB:g=original
=133	=133	=133	=133	=133
8G#XL	4D]	4f#	8BL	.
8AJ	.	.	8B#XJ	.
[2C#XX	4ryy	4a [4f# 4c#	4ryy	.
.	4CC#	4g# 4B#	8f#L]	.
.	.	.	8e#XJ	.
*v	*v	*	*	*
=134	=134	=134	=134
4C#] 4FF#)	4ryy	)4f# 4A#X	.
4r	(>[2cc#^	4r	.
4r	.	8r	.
.	.	8e	.
=135	=135	=135	=135
*	*	*Xtuplet	*
4r	2cc#_	8d#XL	p
.	.	8e#X	.
4F# 4BB	.	8f#	.
.	.	8g#	.
4F#/ 4FF#/	8cc#L]	12a#X	.
.	.	12d#	.
.	8bJ	.	.
.	.	12bJ	.
*	*	*tuplet	*
=136	=136	=136	=136
4F# 4BB	12d#L	4d#X	.
.	12cc#	.	.
.	12bJ	.	.
4F# 4C#	8a#L	4c#	.
.	8g#	.	.
4F#/ 4FF#/	8a#	4c#	.
.	8f#J	.	.
=137	=137	=137	=137
4F# 4BB	8d#L	>4d#X	.
.	8e#X	.	.
4F# 4BB	8f#	4d#	.
.	8g#	.	.
4F#/ 4FF#/	8a#X	4d#	.
.	8bJ	.	.
!!LO:LB:g=original
=138	=138	=138	=138
4F# 4BB	12d#L	4d#X	.
.	12cc#	.	.
.	12bJ	.	.
4F# 4BB	8a#XL	4c#	.
.	8g#J	.	.
4F#/ 4FF#/	4a#)	4c#^	.
=139	=139	=139	=139
4F# 4BB	(8d#L	>4d#X	.
.	8e#X	.	.
4F# 4BB	8f#	4d#	.
.	8g#	.	.
4F#/ 4FF#/	8a#X	4d#	.
.	8bJ	.	.
=140	=140	=140	=140
4F# 4BB	12d#L	4d#X	.
.	12cc#	.	.
.	12bJ	.	.
4F# 4C#	8a#XL	4c#	.
.	8g#	.	.
4F#/ 4FF#/	8a#	4c#	.
.	8f#J	.	.
=141	=141	=141	=141
4F# 4BB	8d#L	4d#X	.
.	8e#X	.	.
4F# 4BB	8f#	4d#	.
.	8g#	.	.
4F#/ 4FF#/	8a#X	4d#	.
.	8bJ	.	.
=142	=142	=142	=142
4F#/ 4FF#/	12d#L	4d#X	.
.	12cc#	.	.
.	12bJ	.	.
4F# 4BB	8a#XL	4d#	.
.	8g#	.	.
4F#/ 4FF#/	8a#	4c#	.
.	8f#J	.	.
!!LO:LB:g=original
=143	=143	=143	=143
!	!	!LO:TX:t=ac _ ce _ le _ ran _ do	!
4F# 4BB	8a#XL	4d#X	.
.	8g#	.	.
4F#/ 4FF#/	8a#	4c#	.
.	8f#	.	.
4F# 4BB	8a#	4d#	.
.	8g#J	.	.
=144	=144	=144	=144
4F#/ 4FF#/	8a#XL	4c#	.
.	8f#	.	.
4F# 4BB	8a#	4d#X	.
.	8g#	.	.
!	!	!LO:TX:t=e	!
4F#/ 4FF#/	8a#	4c#	.
.	8f#J	.	.
=145	=145	=145	=145
!	!	!LO:TX:t=di _ mi _ nu _en _ do	!
4F# 4BB	8a#XL	4d#X	.
.	8g#	.	.
4F#/ 4FF#/	8a#	4c#	.
.	8f#	.	.
4F# 4BB	8a#	4d#	.
.	8g#J	.	.
=146	=146	=146	=146
4F#/ 4FF#/	8a#XL	4c#	.
.	8f#	.	.
4F# 4BB	8a#	4d#X	.
.	8g#XJ	.	.
8F#/ 8FF#/	8a#/) 8c#'/	4c#\	sf
8r	8r	.	.
*	*v	*v	*
=147	=147	=147
*^	*	*
*ped	*	*	*
4ryy	4CC#'	8r	.
.	.	16r	.
!	!	!LO:TX:i:a:t=sostenuto.	!
!	!	!LO:TX:B:a:t=a tempo.	!
.	.	(>16d#X	<
4ryy	4r	4.d#	.
4B 4E#X	4C# 4CC#	.	.
*Xped	*	*	*
.	.	8e#X	.
=148	=148	=148	=148
4A#X 4F#	4C# 4FF#	8.e#XL	.
.	.	16f#Jk	.
4r	4ryy	4.f#	[
4A# 4F#	4C# 4CC#	.	.
.	.	8e#	.
!!LO:LB:g=original
=149	=149	=149	=149
4B 4E#X	4C# 4GG#	>8d#XmL	.
.	.	8c#J	.
4r	4r	4.d#	.
4B 4E#	4C# 4CC#	.	.
.	.	8e#X	.
=150	=150	=150	=150
4A#X 4F#	4C# 4FF#	4f#)	.
4r	4r	(>[2d#X	>
4A# 4F#	4C# 4CC#	.	]
=151	=151	=151	=151
4B 4E#X	4C# 4CC#	8.d#XL]	.
.	.	16d#Jk	<
4r	4r	4.d#	.
4B 4E#	4C# 4CC#	.	.
.	.	8e#X	.
=152	=152	=152	=152
4A#X 4E#X	4C##X 4CC##X	8.g#L	.
.	.	16f#Jk	[
4A# 4F#	4D#X 4DD#X	4.f#	.
4c# 4F#	4AA#X 4AAA#X	.	.
.	.	8e#X	.
=153	=153	=153	=153
4G# 4F#	4BB 4BBB	8d#XmL	.
.	.	8c#J	.
4B 4F#	4GG# 4GGG#	4d#	.
4B 4E#X	4CC# 4CCC#	4e#X	.
=154	=154	=154	=154
4B 4E#X	4CC# 4CCC#	8.g#L	>
.	.	16f#Jk	.
4A#X 4F#	4FF# 4FFF#	4f#)	.
!LO:TX:b:B:t=Fine.	!	!	!
4r	4r	4r	]
*v	*v	*	*
==	==	==
*-	*-	*-
!!title: @{OTL}; @{OPS} @{ONM} publisher: @{PPR}
!!!RDF**kern: > = above
!!!RDF**kern: < = below
!!!EMC: Jędrzej Mróz
!!!EMD: 2018-06-14
!!!EED: Wojciech Jakubiak-Danek
!!!EST: 2018-06-20
!!!rism-genre: Mazurka
!!!rism-key: F-sharp minor
!!!rism-opus: op.  59, no. 3
!!!rism-title: Mazurka in F-sharp minor op.  59, no. 3
!!!rism-permalink: https://opac.rism.info/search?id=1001017237&View=rism
!!!rism-773a-OPR: 1001017234
!!!rism-parent-permalink: https://opac.rism.info/search?id=1001017234&View=rism
